X:13564
T:Pretty Betty Reel
C:Ward Allken
R:reel
M:2/4
L:1/16
K:D
 (3A,B,C|D2DF EDCE|DFAc BAFA|Bcdc BAFD|EFGE CECE|
D2DF EDCE|DFAc BAFA|Bcdc BAFD|EDCE D2:|
|:(3ABc|d2fd c2ec|BABc BAFD|G2BG F2AF|GFED CECE|
D2DF EDCE|DFAc BAFA|Bcdc BAFD|EDCE D2:|
